!!!!SEGMENT: T341_Bar-w37p4-5m14-24.krn
!!!COM: Bartók, Béla
!!!OTL: I: Allegro
!!!AGN: Instrumental
!!!AGN-sub: Chamber
!!!CNT: Hungarian
!!!ODT: 1928 (rev. 1935)
!!!OPR: String Quartet No. 4
!!!filename: T341_Bar-w37p4-5m14-24.krn
**kern	**dynam	**kern	**dynam	**kern	**dynam	**kern	**dynam
*grp:A	*	*grp:B	*	*grp:B	*	*grp:A	*
*part4	*	*part3	*	*part2	*	*part1	*
*staff4	*	*staff3	*	*staff2	*	*staff1	*
*ICstr	*	*ICstr	*	*ICstr	*	*ICstr	*
*Icello	*	*Iviola	*	*Ivioln	*	*Ivioln	*
*I"Violoncello	*	*I"Viola	*	*I"Violin II	*	*I"Violin I	*
*I'Vc.	*	*I'Vla.	*	*I'Vln. II	*	*I'Vln. I	*
*clefF4	*	*clefC3	*	*clefG2	*	*clefG2	*
*k[]	*	*k[]	*	*k[]	*	*k[]	*
*M4/4	*	*M4/4	*	*M4/4	*	*M4/4	*
=14	=14	=14	=14	=14	=14	=14	=14
!	!	!	!	!	!	!LO:TX:t=[[quarter]=110]	!
2r	.	(<8CL	pp	1r	.	1r	.
.	.	8dJ	.	.	.	.	.
!	!	!LO:N:n=1:head=dia	!	!	!	!	!
.	.	8E/r 8ee	.	.	.	.	.
.	.	4d)	.	.	.	.	.
(8GG#XL	p	.	.	.	.	.	.
8AA#XJ	.	(>8C	.	.	.	.	.
8BB	.	8dL	.	.	.	.	.
!	!	!LO:N:head=dia	!	!	!	!	!
[8AA#L	.	8ErJ 8eeyy	.	.	.	.	.
=15	=15	=15	=15	=15	=15	=15	=15
8AA#J]	.	4d)	.	2r	.	1r	.
8GG#XL	.	.	.	.	.	.	.
8DD#XJ)	.	(8CL	.	.	.	.	.
(8GG#	.	8dJ	.	.	.	.	.
!	!	!LO:N:head=dia	!	!	!	!	!
4AA#X	.	8Er 8eeyy	.	4r	.	.	.
.	.	4d)	.	.	.	.	.
4BB	.	.	.	8r	.	.	.
.	.	(>8C	.	(8c#XL	p	.	.
=16	=16	=16	=16	=16	=16	=16	=16
8AA#X	.	8dL	.	8d#X	.	1r	.
!	!	!LO:N:head=dia	!	!	!	!	!
8GG#XL	.	8ErJ 8eeyy	.	8f#XJ)	.	.	.
8DD#XJ)	.	4d)	.	(8gn^	.	.	.
(8GG#	.	.	.	4f#	.	.	.
4AA#	.	(8C	.	.	.	.	.
.	.	8dL	.	8d#)	.	.	.
!	!	!LO:N:head=dia	!	!	!	!	!
4BB	.	8ErJ 8eeyy	.	(8c#XL	.	.	.
.	.	[8dL	.	8d#	.	.	.
=17	=17	=17	=17	=17	=17	=17	=17
8AA#X	.	8dJ])	.	8gJ)	.	(<8g#XL	p
!!!ONB: The breath mark is originally notated as a thick vertical line bisecting the top line on the stave.
!	!	!	!	!LO:TX:t=P:problem: The breath mark is originally notated as a thick vertical line bisecting the top line on the stave.	!	!	!
8GG#XL	.	(>8C	.	8f#X~,	.	8a#X	.
8DD#XJ)	.	8dL	.	(8c#XL	.	8cc#XJ)	.
!	!	!LO:N:head=dia	!	!	!	!	!
(8GG#L	.	8ErJ 8eeyy	.	8d#X	.	(8ddn^	.
8AA#J	.	4d)	.	8f#J)	.	4cc#	.
4BB	.	.	.	(8g^	.	.	.
.	.	(>8C	.	4f#	.	8a#)	.
8DD#)	.	8d	.	.	.	(8g#L	.
=18	=18	=18	=18	=18	=18	=18	=18
!	!	!LO:N:head=dia	!	!	!	!	!
(8GG#XL	.	8Er 8eeyy	.	8d#X)	.	8a#X	.
8AA#XJ	.	4d)	.	(8c#XL	.	8ddJ)	.
!!!ONB: The breath mark is originally notated as a thick vertical line bisecting the top line on the stave.
!	!	!	!	!	!	!LO:TX:t=P:problem: The breath mark is originally notated as a thick vertical line bisecting the top line on the stave.	!
4BB	.	.	.	8d#	.	8cc#X~,	.
.	.	(>8C	.	8gJ)	.	(<8g#XL	.
4GG#	.	8dL	.	8f#X~,	.	8a#	.
!	!	!LO:N:head=dia	!	!	!	!	!
.	.	8ErJ 8eeyy	.	(8c#L	.	8cc#J)	.
8CC#X)	.	8d)	.	8d#	.	(8dd^	.
*	*	*clefG2	*	*	*	*	*
(>8CCn	.	(8ddL	p	8f#J)	.	[8cc#L	.
=19	=19	=19	=19	=19	=19	=19	=19
*grp:B	*	*grp:A	*	*grp:A	*	*grp:A	*
4D	.	8ee	.	(8g	.	8cc#J])	.
.	.	8ggJ)	.	4f#X	.	(8g#XL	.
!LO:N:n=1:head=dia	!	!	!	!	!	!	!
4EEr/ 4e	.	(8aa-X^	.	.	.	8a#X	.
.	.	4gg	.	4d#X	.	8ddJ	.
8D)	.	.	.	.	.	8cc#X)	.
(<4CC	.	8ee)	.	4c#X	.	(8g#L	.
.	.	(8ddL	.	.	.	8a#	.
8DL	.	8ee	.	8B-X)	.	8cc#J	.
=20	=20	=20	=20	=20	=20	=20	=20
!LO:N:head=dia	!	!	!	!	!	!	!
8EErJ 8eyy)	.	8aa-XJ)	.	4.B-X	.	8dd)	.
(>8CC	.	(8ddd-XL	.	.	.	(<8g#XL	.
8D	.	8aa-J	.	.	.	8a#X	.
!LO:N:head=dia	!	!	!	!	!	!	!
4EEe 4eyy)	.	4gg)	.	(8g	.	8cc#XJ)	.
.	.	.	.	4f#X	.	(8dd^	.
*	*	*clefC3	*	*	*	*	*
(>8CC	.	(8dL	.	.	.	4cc#)	.
8DL	.	8e	.	4d#X	.	.	.
!LO:N:head=dia	!	!	!	!	!	!	!
8EErJ 8eyy	.	8gJ)	.	.	.	(8g#L	.
=21	=21	=21	=21	=21	=21	=21	=21
4D	.	(4a-X	.	8c#X	.	8a#X	.
.	.	.	.	4.B-X)	.	8cc#XJ)	.
!LO:N:head=dia	!	!	!	!	!	!	!
8EEr 8eyy)	.	8dd-X	.	.	.	(4dd	.
(>8CC	.	[4.a-	.	.	.	.	.
8DL	.	.	.	(8c#	.	8gg	.
!LO:N:head=dia	!	!	!	!	!	!	!
8EErJ 8eyy	.	.	.	4.B-)	.	8dd	.
4D)	.	8a-L]	.	.	.	4cc#)	.
.	.	8gJ)	.	.	.	.	.
=22	=22	=22	=22	=22	=22	=22	=22
(>8CC	.	8r	.	1B-X	.	(8dL	.
4D	.	(8G#XL	.	.	.	8gJ)	.
.	.	8c#XJ)	.	.	.	(>4a-X	.
!LO:N:head=dia	!	!	!	!	!	!	!
4EEr 4eyy)	.	4.d	.	.	.	.	.
.	.	.	.	.	.	8dd-X	.
(8CC	.	.	.	.	.	8a-	.
8DL	.	(8G#L	.	.	.	[4g	.
!LO:N:head=dia	!	!	!	!	!	!	!
8EErJ 8eyy)	.	8c#J)	.	.	.	.	.
=23	=23	=23	=23	=23	=23	=23	=23
(4CC	.	4d	.	[1B-X	.	8gL]	.
.	.	.	.	.	.	8a-XJ)	.
8DL	.	4G#X	<	.	.	(8g	<
!LO:N:head=dia	!	!	!	!	!	!	!
8EErJ 8eyy)	.	.	.	.	.	4d)	.
(8CC	.	4c#X	.	.	.	.	.
8DL	.	.	.	.	.	4g	.
!LO:N:head=dia	!	!	!	!	!	!	!
8EErJ 8eyy)	.	4G#	.	.	.	.	.
(8CC	.	.	.	.	.	(8dL	.
=24	=24	=24	=24	=24	=24	=24	=24
*	*	*	*	*	*	*^	*
8DL	.	4c#X	.	4.B-]	.	8fJ)	2ryy	.
!LO:N:head=dia	!	!	!	!	!	!	!	!
8EErJ 8eyy)	.	.	.	.	.	4d	.	.
(8CC	.	4B-X	.	.	.	.	.	.
8DL	.	.	.	8r	.	4e	.	.
!LO:N:head=dia	!	!	!	!	!	!	!	!
8EErJ 8eyy)	.	4Cn 4c#X	.	4r	.	.	8ryy	.
8r	.	.	.	.	.	([<8dL	8dL	.
8r	.	8B- 8cn	.	8r	.	8eJ)	8dJ]	.
[8c#X	pp	8r	.	[8Bn [8d#X	pp	8r	8ryy	.
*	*	*	*	*	*	*v	*v	*
=	=	=	=	=	=	=	=
*-	*-	*-	*-	*-	*-	*-	*-
!!!system-decoration: [(s1,s2,s3,s4)]
!!!RDF**kern: N = cue size
!!!RDF**kern: > = above
!!!RDF**kern: < = below
!!!EED: Rafael Laurindo
!!!EEV: 2021/07/12
!!!EED2: Gabriella Vici
!!!EEV2: 2022/02/16
!!!EED3: Bryan Bell
!!!Suter_Work_ID: Bar-37
!!!Suter_Example_Number: 341
!!!Suter_Example_ID: Bar-37/4-5/14-24
!!!Premiere_Location: Budapest,Hungary
!!!Other_Tsigs: none
!!!Full_Unit_Duration: 6:01
!!!First_Publication_Year: 1929
!!!First_Public_Performance_Year: 1929
!!!Example_Total_Measures: 11
!!!Example_Timestamp_Duration: 26
!!!Example_Start_Tsig_Type: simple quadruple
!!!Example_Start_Tsig_Mean_Beat_Rate: 110
!!!Example_Start_Tsig_Beat_Rate: 110
!!!Example_Start_Tsig_Beat: quarter
!!!Example_Start_Tsig: 4/4
!!!Example_Start_Timestamp: 0:30
!!!Example_Start_Tempo_Expression: [Allegro]
!!!Example_Start_Notated_Beat_Rate: [110]
!!!Example_Start_Notated_Beat: [quarter]
!!!Example_Start_Measure: 14
!!!Example_Metadata_Validated: Y
!!!Example_End_Timestamp: 0:56
!!!Example_End_Measure: 24
!!!Example_Dataset: T
!!!Editorial_Comments: Example Start Notated Beat and Example Start Notated Beat Rate [quarter=110] based on most recent notated beat rate (SWFU, m. 1). Example Start Tempo Expression [Allegro] based on most recent notated tempo expression (SWFU, m. 1).
!!!Death_Place: New York,United States
!!!Death_Date: 26-Sep-1945
!!!Changing_Tsig: no
!!!Birth_Place: Sînnicolau Mare (Nagyszentmiklós),Romania (Hungary)
!!!Birth_Date: 25-Mar-1881
!!!Audio_Example_Quarter_Note_Tempo:
!!!Audio_Example_Duration:
!!!EEV3: 2023/06/01
